configs/network-icons/only-layer-icon.svg

<svg width="210" height="218" viewBox="0 0 210 218" fill="none" xmlns="http://www.w3.org/2000/svg">
<path d="M209.26 130.89L122.58 217.56V152.14L209.25 65.46L209.26 130.89Z" fill="url(#paint0_linear_134_56)"/>
<path d="M76.32 198.37H0V152.1H122.58L76.32 198.37Z" fill="url(#paint1_linear_134_56)"/>
<path d="M132.94 19.1904H209.26V65.4604H86.6799L132.94 19.1904Z" fill="url(#paint2_linear_134_56)"/>
<path d="M0 86.68L86.68 0V65.43L0 152.1V86.68Z" fill="url(#paint3_linear_134_56)"/>
<defs>
<linearGradient id="paint0_linear_134_56" x1="53.7601" y1="253.68" x2="246.6" y2="60.83" gradientUnits="userSpaceOnUse">
<stop stop-color="#3D3DEA"/>
<stop offset="1" stop-color="#6489FF"/>
</linearGradient>
<linearGradient id="paint1_linear_134_56" x1="6.74" y1="206.66" x2="199.58" y2="13.8096" gradientUnits="userSpaceOnUse">
<stop stop-color="#3D3DEA"/>
<stop offset="1" stop-color="#6489FF"/>
</linearGradient>
<linearGradient id="paint2_linear_134_56" x1="6.74994" y1="206.67" x2="199.6" y2="13.8304" gradientUnits="userSpaceOnUse">
<stop stop-color="#3D3DEA"/>
<stop offset="1" stop-color="#6489FF"/>
</linearGradient>
<linearGradient id="paint3_linear_134_56" x1="-40.26" y1="159.66" x2="152.58" y2="-33.19" gradientUnits="userSpaceOnUse">
<stop stop-color="#3D3DEA"/>
<stop offset="1" stop-color="#6489FF"/>
</linearGradient>
</defs>
</svg>

<svg xmlns="http://www.w3.org/2000/svg" fill="none" viewBox="0 0 210 218">
  <path fill="url(#only-layer-icon_svg__a)" d="m209.26 130.89-86.68 86.67v-65.42l86.67-86.68.01 65.43Z"/>
  <path fill="url(#only-layer-icon_svg__b)" d="M76.32 198.37H0V152.1h122.58l-46.26 46.27Z"/>
  <path fill="url(#only-layer-icon_svg__c)" d="M132.94 19.19h76.32v46.27H86.68l46.26-46.27Z"/>
  <path fill="url(#only-layer-icon_svg__d)" d="M0 86.68 86.68 0v65.43L0 152.1V86.68Z"/>
  <defs>
    <linearGradient id="only-layer-icon_svg__a" x1="53.76" x2="246.6" y1="253.68" y2="60.83" gradientUnits="userSpaceOnUse">
      <stop stop-color="#3D3DEA"/>
      <stop offset="1" stop-color="#6489FF"/>
    </linearGradient>
    <linearGradient id="only-layer-icon_svg__b" x1="6.74" x2="199.58" y1="206.66" y2="13.81" gradientUnits="userSpaceOnUse">
      <stop stop-color="#3D3DEA"/>
      <stop offset="1" stop-color="#6489FF"/>
    </linearGradient>
    <linearGradient id="only-layer-icon_svg__c" x1="6.75" x2="199.6" y1="206.67" y2="13.83" gradientUnits="userSpaceOnUse">
      <stop stop-color="#3D3DEA"/>
      <stop offset="1" stop-color="#6489FF"/>
    </linearGradient>
    <linearGradient id="only-layer-icon_svg__d" x1="-40.26" x2="152.58" y1="159.66" y2="-33.19" gradientUnits="userSpaceOnUse">
      <stop stop-color="#3D3DEA"/>
      <stop offset="1" stop-color="#6489FF"/>
    </linearGradient>
  </defs>
</svg>
